packages/smooth_app/assets/misc/error.svg

<svg width="100" height="100" viewBox="0 0 100 100" fill="none" xmlns="http://www.w3.org/2000/svg">
    <path d="M49.9984 99.9842C77.6048 99.9842 99.9842 77.6048 99.9842 49.9984C99.9842 22.392 77.6048 0.0125732 49.9984 0.0125732C22.392 0.0125732 0.0125732 22.392 0.0125732 49.9984C0.0125732 77.6048 22.392 99.9842 49.9984 99.9842Z" fill="#D2F0FF"/>
    <path d="M61.4633 80.7811L60.9438 81.003C56.083 83.0794 50.4475 80.8197 48.3699 75.956L44.6077 67.1484L62.7452 59.4009L66.5074 68.2084C68.5838 73.0693 66.3241 78.7048 61.4604 80.7824L61.4633 80.7811Z" fill="#FF6478"/>
    <path d="M58.0264 73.8836C57.7582 73.8836 57.4994 73.7258 57.3889 73.4607L53.9745 65.4643C53.823 65.1108 53.9871 64.7037 54.3406 64.5523C54.694 64.4008 55.1011 64.5649 55.2526 64.9183L58.667 72.9148C58.8185 73.2682 58.6544 73.6753 58.3009 73.8268C58.2126 73.8646 58.1211 73.8836 58.0295 73.8836H58.0264Z" fill="black"/>
    <path d="M58.973 42.999C58.7395 42.999 58.5028 42.9422 58.2851 42.8192C57.6003 42.4373 57.3542 41.5727 57.736 40.8879L66.5214 25.1096C66.9032 24.4248 67.7679 24.1786 68.4527 24.5605C69.1374 24.9423 69.3836 25.807 69.0017 26.4917L60.2164 42.2701C59.9576 42.7371 59.4716 42.999 58.973 42.999Z" fill="black"/>
    <path d="M71.2549 39.5025C71.0214 39.5025 70.7847 39.4457 70.5638 39.3227L54.7855 30.5373C54.1007 30.1554 53.8545 29.2908 54.2364 28.606C54.6182 27.9212 55.4829 27.6751 56.1676 28.0569L71.946 36.8423C72.6308 37.2241 72.8769 38.0888 72.4951 38.7736C72.2363 39.2406 71.7503 39.5025 71.2517 39.5025H71.2549Z" fill="black"/>
    <path d="M25.7943 52.0811C25.5608 52.0811 25.3241 52.0243 25.1064 51.9012C24.4216 51.5194 24.1755 50.6547 24.5573 49.9699L33.3427 34.1916C33.7245 33.5068 34.5892 33.2607 35.2739 33.6425C35.9587 34.0243 36.2049 34.889 35.823 35.5738L27.0377 51.3521C26.7789 51.8192 26.2929 52.0811 25.7943 52.0811Z" fill="black"/>
    <path d="M38.0762 48.5846C37.8427 48.5846 37.606 48.5278 37.3883 48.4047L21.6099 39.6193C20.9251 39.2375 20.679 38.3728 21.0608 37.688C21.4427 37.0033 22.3073 36.7571 22.9921 37.139L38.7704 45.9243C39.4552 46.3062 39.7014 47.1708 39.3195 47.8556C39.0608 48.3226 38.5748 48.5846 38.0762 48.5846Z" fill="black"/>
    <path d="M37.1454 69.4184C36.5205 69.4184 35.9494 69.005 35.7758 68.3738C35.5675 67.6165 36.0156 66.837 36.7698 66.6287L69.8507 57.572C70.6081 57.3637 71.3875 57.8086 71.5958 58.566C71.8041 59.3234 71.356 60.1028 70.6018 60.3111L37.5209 69.3679C37.3947 69.4026 37.2684 69.4184 37.1454 69.4184Z" fill="black"/>
</svg>

<svg width="100" height="100" fill="none" xmlns="http://www.w3.org/2000/svg"><path d="M49.998 99.984c27.607 0 49.986-22.38 49.986-49.986 0-27.606-22.38-49.985-49.986-49.985C22.392.013.013 22.392.013 49.998c0 27.607 22.379 49.986 49.985 49.986Z" fill="#D2F0FF"/><path d="m61.463 80.781-.52.222c-4.86 2.076-10.495-.183-12.573-5.047l-3.762-8.808 18.137-7.747 3.762 8.807c2.077 4.861-.183 10.497-5.047 12.574h.003Z" fill="#FF6478"/><path d="M58.026 73.884a.69.69 0 0 1-.637-.423l-3.415-7.997a.694.694 0 1 1 1.279-.546l3.414 7.997a.694.694 0 0 1-.638.969h-.003ZM58.973 42.999a1.42 1.42 0 0 1-1.237-2.111l8.785-15.778a1.42 1.42 0 0 1 2.48 1.382L60.217 42.27a1.42 1.42 0 0 1-1.243.729Z" fill="#000"/><path d="M71.255 39.502c-.234 0-.47-.056-.691-.18l-15.778-8.785a1.42 1.42 0 0 1 1.382-2.48l15.778 8.785a1.42 1.42 0 0 1-.694 2.66h.003ZM25.794 52.081a1.42 1.42 0 0 1-1.237-2.111l8.786-15.778a1.42 1.42 0 0 1 2.48 1.382l-8.785 15.778a1.419 1.419 0 0 1-1.244.73Z" fill="#000"/><path d="M38.076 48.585c-.233 0-.47-.057-.688-.18L21.61 39.619a1.42 1.42 0 0 1 1.382-2.48l15.778 8.785a1.42 1.42 0 0 1-.694 2.66ZM37.145 69.418a1.42 1.42 0 0 1-.375-2.79l33.08-9.056a1.421 1.421 0 0 1 .751 2.74l-33.08 9.056c-.126.035-.253.05-.376.05Z" fill="#000"/></svg>
